!!!COM: Haydn, Franz Joseph
!!!OPR: String Quartet in D Major
!!!ONM: Opus 71, No. 2
!!!OTL: Affettuoso 
!!!OMV: 2
!!!SCT: H III:70
!!!SCA: Thematisch-bibliographisches Werkevererzeichnis (A. van Hoboken)
!!!YOR: Trautwein Edition
!!!EED: Frances Bennion
!!!ENC: Frances Bennion
!!!CDT: 1732/3/31/-1809/5/31/
!!!OCY: Österreich
!!!YEC: Copyright (c) 1994, 2000 Center for Computer Assisted Research in the Humanities
!!!YEM: Rights to all derivative editions reserved.
!!!YEM: Refer to licensing agreement for further details.
!!!YEN: United States of America
**kern	**kern	**kern	**kern
*k[f#c#g#]	*k[f#c#g#]	*k[f#c#g#]	*k[f#c#g#]
*A:	*A:	*A:	*A:
*clefF	*clefF	*clefC3	*clefF4
*M3/4	*M3/4	*M3/4	*M3/4
*tb96	*tb96	*tb96	*tb96
=1	=1	=1	=1
4e	2.c#	2.E	[2.AA
4a	.	.	.
4cc#	.	.	.
=2	=2	=2	=2
4f#	[2.d	2.F#	2.AA_
4b	.	.	.
4dd	.	.	.
=3	=3	=3	=3
4g#	4d]	4B	4AA]
4ee	2g# 2B	2d	[2AA
8ff#	.	.	.
8dd	.	.	.
=4	=4	=4	=4
8cc#	8cc#	4e	4AA]
8b	8d	.	.
8a	8c#	2r	16.r
.	.	.	32AA
4r	4r	.	16.C#
.	.	.	32E
.	.	.	8A
8cc#	8a	.	8r
=5	=5	=5	=5
16.dd	16.b	[4e	2.r
32ee	32cc#	.	.
16.cc#	16.a	.	.
32dd	32b	.	.
8b	8g#	16.e]	.
.	.	32f#	.
4r	4r	16.d	.
.	.	32e	.
.	.	16.c#	.
.	.	32d	.
8dd	8b	16.B	.
.	.	32c#	.
=6	=6	=6	=6
16.ee	2cc# 2e	2A	2r
32ff#	.	.	.
16.gg#	.	.	.
32aa	.	.	.
8.ee	.	.	.
16ccc#	.	.	.
16.bb	8A	8E	8C#
32aa	.	.	.
16.gg#	8B	8F#	8D
32ff#	.	.	.
=7	=7	=7	=7
[4ee	4c#	4A	2E
24ee]	2d	2G#	.
24ff#	.	.	.
24dd	.	.	.
24cc#	.	.	.
24b	.	.	.
24a	.	.	.
24g#	.	.	4EE
24f#	.	.	.
24e	.	.	.
24d	.	.	.
24c#	.	.	.
24B	.	.	.
=8	=8	=8	=8
4A	16c#	16A	4AA
.	8.e	16E	.
.	.	16c#	.
.	.	16E	.
4r	4c#	16A	2r
.	.	16E	.
.	.	16c#	.
.	.	16E	.
4a	4A	16A	.
.	.	16E	.
.	.	16c#	.
.	.	16E	.
=9	=9	=9	=9
2dd	2f#	16A	[2.AA
.	.	16F#	.
.	.	16d	.
.	.	16F#	.
.	.	16A	.
.	.	16F#	.
.	.	16d	.
.	.	16F#	.
8.ff#	4d	16A	.
.	.	16G#	.
.	.	16B	.
16ee	.	16G#	.
=10	=10	=10	=10
4ee	4c#	16A	4AA]
.	.	16E	.
.	.	16c#	.
.	.	16E	.
4cc#	4r	16A	2r
.	.	16E	.
.	.	16c#	.
.	.	16E	.
4a	4c#	16A	.
.	.	16E	.
.	.	16c#	.
.	.	16E	.
=11	=11	=11	=11
2dd	2f#	16A	[2.AA
.	.	16F#	.
.	.	16d	.
.	.	16F#	.
.	.	16A	.
.	.	16F#	.
.	.	16d	.
.	.	16F#	.
8.ff	4d	16A	.
.	.	16G#	.
.	.	16B	.
16ee	.	16G#	.
=12	=12	=12	=12
2.ee	2c#	16A	2.AA]
.	.	16E	.
.	.	16c#	.
.	.	16E	.
.	.	16A	.
.	.	16E	.
.	.	16c#	.
.	.	16E	.
.	4cc#	16A	.
.	.	16E	.
.	.	16c#	.
.	.	16A	.
=13	=13	=13	=13
2.ee#	8b	16G#	[2.C#
.	.	16B	.
.	8g#	16c#	.
.	.	16B	.
.	8e#	16G#	.
.	.	16B	.
.	8g#	16d	.
.	.	16B	.
.	8a	16c#	.
.	.	16A	.
.	16b	16G#	.
.	16g#	16B	.
=14	=14	=14	=14
2ff#	2.a	16A	2C#]
.	.	16f#	.
.	.	16a	.
.	.	16f#	.
.	.	16A	.
.	.	16c#	.
.	.	16a	.
.	.	16c#	.
4ee	.	16A	4C
.	.	16e	.
.	.	16a	.
.	.	16e	.
=15	=15	=15	=15
4dd#	4f#	16A	2.BB
.	.	16f#	.
.	.	16a	.
.	.	16f#	.
4ee	4g#	16B	.
.	.	16e	.
.	.	16g#	.
.	.	16e	.
8.a#	4c#	16G	.
.	.	16e	.
.	.	16g	.
16b	.	16e	.
=16	=16	=16	=16
4b	4B	4d#	16r
.	.	.	16BB
.	.	.	16E
.	.	.	16D#
2r	2r	2r	16G#
.	.	.	16F#
.	.	.	16B
.	.	.	16A#
.	.	.	16c#
.	.	.	16B
.	.	.	16A
.	.	.	16F#
=17	=17	=17	=17
4b	8r	8r	2.r
.	8g#	8e	.
4ee	8r	8r	.
.	8g#	8e	.
4gg#	8r	8r	.
.	8g#	8e	.
=18	=18	=18	=18
8.cc#	8r	8r	4E
.	8a	8e	.
16cc#	.	.	.
4ff#	8r	8r	2r
.	8cc# 8a	8e	.
8.aa	8r	8r	.
.	8cc# 8a	8e	.
48gg#	.	.	.
48ff#	.	.	.
48ee	.	.	.
=19	=19	=19	=19
8dd#	8r	16r	4BB
.	.	16b	.
8bb	8d#	16a	.
.	.	16f#	.
4.bb	8r	16e	4F#
.	.	16d#	.
.	8d#	16a	.
.	.	16f#	.
.	8r	16e	4A
.	.	16d#	.
16ccc#	8f#	16c#	.
16ddd#	.	16B	.
=20	=20	=20	=20
8eee	8r	16r	4G#
.	.	16e	.
8bb	8e	16B	.
.	.	16A	.
4.bb	8r	16G#	4B
.	.	16A	.
.	8e	16G#	.
.	.	16F#	.
.	8r	16E	4e
.	.	16G#	.
8ggg#	16e	16B	.
.	16r	16e	.
=21	=21	=21	=21
8aaa	16r	8d#	4BB
.	16dd#	.	.
8fff#	16ff#	8d#	.
.	16gg#	.	.
2ddd#	16aa	8r	4F#
.	16bb	.	.
.	16aa	8B	.
.	16gg#	.	.
.	16ff#	8r	4A
.	16ee	.	.
.	16dd#	8B	.
.	16ff#	.	.
=22	=22	=22	=22
8eee	16r	8r	4G#
.	16b	.	.
8bb	16ee	8E	.
.	16ff#	.	.
[4bb	16gg#	8r	4B
.	16aa	.	.
.	16gg#	8E	.
.	16ff#	.	.
16bb]	16ee	8r	4e
16eee	16b	.	.
16ggg#	16g#	8E	.
16eee	16b	.	.
=23	=23	=23	=23
8aaa	8d#	16r	4BB
.	.	16d#	.
8fff#	8d#	16f#	.
.	.	16g#	.
2ddd#	8r	16a	4F#
.	.	16b	.
.	8B	16a	.
.	.	16g#	.
.	8r	16f#	4A
.	.	16e	.
.	8B	16d#	.
.	.	16f#	.
=24	=24	=24	=24
[2eee	16e	16B	16G
.	16g	16G	16E
.	16e	16B	16G
.	16g	16G	16E
.	16e	16B	16G
.	16g	16G	16E
.	16e	16B	16G
.	16g	16G	16E
8eee]	16e	16B	16G
.	16g	16G	16E
8ee	16e	16B	16G
.	16g	16G	16E
=25	=25	=25	=25
[2gg	16e	16c	16C
.	16g	16G	16E
.	16e	16c	16C
.	16g	16G	16E
.	16e	16c	16C
.	16g	16G	16E
.	16e	16c	16C
.	16g	16G	16E
8gg]	16e	16c	16C
.	16g	16G	16E
8cc	16e	16c	16C
.	16g	16G	16E
=26	=26	=26	=26
2ff	16f	16c	16AA
.	16f	16c	16AA
.	16f	16c	16AA
.	16f	16c	16AA
.	16f	16c	16AA
.	16f	16c	16AA
.	16f	16c	16AA
.	16f	16c	16AA
4ee	16g	16c#	16AA#
.	16g	16c#	16AA#
.	16g	16c#	16AA#
.	16g	16c#	16AA#
=27	=27	=27	=27
4.b	4.g#	2e	16BB
.	.	.	16E
.	.	.	16G#
.	.	.	16E
.	.	.	4.B
8a#	8g	.	.
8a	4f#	8d#	.
8d#	.	8A	8BB
=28	=28	=28	=28
8e	4e	4G#	4E
8g#	.	.	.
8b	2r	2r	2r
16aa	.	.	.
16gg#	.	.	.
16ff#	.	.	.
16ee	.	.	.
16dd#	.	.	.
16cc#	.	.	.
=29	=29	=29	=29
4.b	4.g#	2e	16r
.	.	.	16BB
.	.	.	16C#
.	.	.	16D#
.	.	.	16E
.	.	.	16F#
8a#	8g	.	16G
.	.	.	16E
8a	4f#	8d#	8B
8d#	.	8A	8BB
=30	=30	=30	=30
16e	4e	4G#	4E
16g#	.	.	.
16b	.	.	.
16dd#	.	.	.
16ff#	2r	2r	2r
16ee	.	.	.
16aa	.	.	.
16gg#	.	.	.
16ff#	.	.	.
16ee	.	.	.
16dd#	.	.	.
16cc#	.	.	.
=31	=31	=31	=31
4.b	4.g#	2e	16r
.	.	.	16BB
.	.	.	16C#
.	.	.	16D#
.	.	.	16E
.	.	.	16F#
8a#	8g	.	16G
.	.	.	16E
8a	4f#	8d#	8B
8d#	.	8A	8BB
=32	=32	=32	=32
4e	16e	16G#	[2.E
.	16d	16B	.
.	16c#	16A	.
.	16B	16G#	.
4a	4c#	16A	.
.	.	16B	.
.	.	16c#	.
.	.	16d#	.
4g#	4B	16e	.
.	.	16d#	.
.	.	16c#	.
.	.	16B	.
=33	=33	=33	=33
16f#	2.d#	2.A	2.E]
16g#	.	.	.
16a	.	.	.
16a#	.	.	.
16b	.	.	.
16b#	.	.	.
16dd#	.	.	.
16cc#	.	.	.
16b	.	.	.
16a	.	.	.
16g#	.	.	.
16f#	.	.	.
=34	=34	=34	=34
8e	8e	8G#	16r
.	.	.	16C#
8r	8r	8r	16BB
.	.	.	16AA
8e	8B	8G#	16GG#
.	.	.	16AA
8r	8r	8r	16GG#
.	.	.	16FF#
8e	8B	8G#	16EE
.	.	.	16DD#
8r	8r	8r	16EE
.	.	.	16DD#
=35	=35	=35	=35
2.e	2.B	2.G#	2EE
.	.	.	4DD
=36	=36	=36	=36
4G 4e	8c	8G	8CC
.	8G 8e	8C	8CC
4g	8e 8G	8E	8CC
.	8e 8G	8G	8CC
4cc 4e	8e 8G	8E	8CC
.	8G 8e	8C	8CC
=37	=37	=37	=37
4d 4b	8f 8G	8B 8d	8CC 8C
.	8f 8G	8d 8B	8C 8CC
4dd	8G 8f	8B 8d	8CC 8C
.	8f 8G	8B 8d	8C 8CC
4ff	8b 8d	8G 8d	8C 8CC
.	8b 8d	8d 8G	8C 8CC
=38	=38	=38	=38
4ee 4cc	2cc 2e	8e 8G	8CC
.	.	8e 8G	8c
4gg	.	8e 8G	8c
.	.	8G 8e	8c
4ccc	4ee	8g	8c
.	.	8g	8c
=39	=39	=39	=39
4aa	4ff	8f	4c
.	.	8a	.
4gg	4ee	8cc	16.r
.	.	.	32C
.	.	4.r	16.E
.	.	.	32G
8r	8r	.	8c
8ee	8cc	.	8r
=40	=40	=40	=40
16.ff	16.dd	[4g	2.r
32gg	32ee	.	.
16.ee	16.cc	.	.
32ff	32dd	.	.
8dd	8b	16.g]	.
.	.	32a	.
4r	4r	16.f	.
.	.	32g	.
.	.	16.e	.
.	.	32f	.
8ff	8dd	16.d	.
.	.	32e	.
=41	=41	=41	=41
16.gg	4ee	4c	4r
32aa	.	.	.
16.bb	.	.	.
32ccc	.	.	.
4.gg	8r	8r	4c
.	8e	8c	.
.	8d	8B-	4B-
8gg#	8d	8B-	.
=42	=42	=42	=42
[2.aa	16.c#	16.A	4A
.	32d	32B	.
.	16.e	16.c#	.
.	32f#	32d	.
.	8g	8e	2r
.	8f#	8d	.
.	8g	8e	.
.	8e	8c#	.
=43	=43	=43	=43
16aa]	4e#	4d	4r
16bb	.	.	.
16ccc#	.	.	.
16ddd	.	.	.
8aa	8r	8r	4d
8aa	8f	8d	.
8r	8e	8c	4c
8aa	8e	8c	.
=44	=44	=44	=44
[2aa	16.d#	16.B	4B
.	32e	32c#	.
.	16.f#	16.d#	.
.	32g	32e	.
.	8a	8f#	4r
.	8g	8e	.
16.aa]	8a	8f#	4B
32ccc	.	.	.
16.bb	8f#	8d#	.
32aa	.	.	.
=45	=45	=45	=45
16.gg#	8e	8e	8E
32aa	.	.	.
16.bb	8B 8d	8G#	8E
32ccc	.	.	.
16.ddd	8d 8B	8G#	8E
32ccc	.	.	.
16.bb	8B 8d	8G#	8E
32aa	.	.	.
16.gg#	8d 8B	8G#	8E
32ff	.	.	.
16.ee	8B 8d	8G#	8E
32dd	.	.	.
=46	=46	=46	=46
16.cc	8c	8A	8E
32b	.	.	.
16.a	8c	8A	8E
32g#	.	.	.
16.a	8c	8A	8E
32e	.	.	.
16.c	8c	8A	8E
32B	.	.	.
16.A	8d#	8c	8E
32c	.	.	.
16.B	8d#	8c	8E
32A	.	.	.
=47	=47	=47	=47
16G#	4e	4B	4E
16B	.	.	.
16e	.	.	.
16d#	.	.	.
16f#	2r	2r	2r
16e	.	.	.
16g#	.	.	.
16f#	.	.	.
16a	.	.	.
16g#	.	.	.
16b	.	.	.
16a	.	.	.
=48	=48	=48	=48
16cc#	2d	2e 2B	2G#
16b	.	.	.
16dd	.	.	.
16cc#	.	.	.
16ee	.	.	.
16dd	.	.	.
16cc#	.	.	.
16b	.	.	.
16a	4r	4r	4r
16g#	.	.	.
16f#	.	.	.
16e	.	.	.
=49	=49	=49	=49
16d#	8r	8r	8r
16e	.	.	.
8r	8c#	8e	8A
16g#	8r	8r	8r
16a	.	.	.
8r	8e	8c#	8A
16b#	8r	8r	8r
16cc#	.	.	.
8r	8e	8c#	8A
=50	=50	=50	=50
24e#	8r	8r	8r
24g#	.	.	.
24f#	.	.	.
8r	8f#	8d	8A
24a#	8r	8r	8r
24cc#	.	.	.
24b	.	.	.
8r	8f#	8d	8A
24cc#	8r	8r	8r
24ee	.	.	.
24dd	.	.	.
8r	8f#	8d	8A
=51	=51	=51	=51
24G#	8r	8r	8r
24B	.	.	.
24d	.	.	.
24e	[2e	[2d	[2G#
24g#	.	.	.
24b	.	.	.
24dd	.	.	.
24ee	.	.	.
24gg#	.	.	.
24bb	.	.	.
24ddd	.	.	.
24ccc#	.	.	.
24bb	.	.	.
24aa	.	.	.
24gg#	.	.	.
24ff#	8e]	8d]	8G#]
24ee	.	.	.
24dd	.	.	.
=52	=52	=52	=52
24cc#	4c# 4e	4c#	4A
24dd	.	.	.
24ee	.	.	.
24dd	.	.	.
24cc#	.	.	.
24b	.	.	.
8a	2r	2r	2r
8b	.	.	.
8cc	.	.	.
8cc#	.	.	.
=53	=53	=53	=53
24dd	4g#	4d	4B
24ee	.	.	.
24ff#	.	.	.
24ee	.	.	.
24dd	.	.	.
24cc#	.	.	.
8b	2r	2r	2r
8cc#	.	.	.
8dd	.	.	.
8dd#	.	.	.
=54	=54	=54	=54
24ee	4A	4E	4C#
24ff#	.	.	.
24gg#	.	.	.
24aa	.	.	.
24bb	.	.	.
24ccc#	.	.	.
24ddd	4r	4r	4r
24ccc#	.	.	.
24bb	.	.	.
24aa	.	.	.
24gg#	.	.	.
24ff#	.	.	.
24ee	4B	4F#	4D
24dd	.	.	.
24cc#	.	.	.
24b	.	.	.
24a	.	.	.
24g#	.	.	.
=55	=55	=55	=55
24f#	4c#	4A	4E
24e	.	.	.
24d	.	.	.
24c#	.	.	.
24B	.	.	.
24A	.	.	.
24G#	4r	4r	4r
24A	.	.	.
24B	.	.	.
24c#	.	.	.
24d	.	.	.
24e	.	.	.
24f#	4d	4d	4E
24g#	.	.	.
24a	.	.	.
24b	.	.	.
24dd	.	.	.
24g#	.	.	.
=56	=56	=56	=56
2a	24c#	2.e 2.A	2.GG
.	24d	.	.
.	24e	.	.
.	24d	.	.
.	24c#	.	.
.	24B	.	.
.	24A	.	.
.	24c#	.	.
.	24e	.	.
.	24d	.	.
.	24c#	.	.
.	24B	.	.
4cc#	24A	.	.
.	24c#	.	.
.	24e	.	.
.	24d	.	.
.	24c#	.	.
.	24B	.	.
=57	=57	=57	=57
2dd	24A	4d	2FF
.	24d	.	.
.	24f	.	.
.	24a	.	.
.	24f	.	.
.	24d	.	.
.	24A	4f	.
.	24d	.	.
.	24f	.	.
.	24a	.	.
.	24f	.	.
.	24d	.	.
8.ee	24A	4g	4EE
.	24c#	.	.
.	24e	.	.
.	24a	.	.
.	24e	.	.
32dd	.	.	.
.	24c#	.	.
32ee	.	.	.
=58	=58	=58	=58
4ff	24A	4f	4DD
.	24d	.	.
.	24f	.	.
.	24a	.	.
.	24f	.	.
.	24d	.	.
4..a	24A	2F#	2DD#
.	24c	.	.
.	24B	.	.
.	24A	.	.
.	24B	.	.
.	24c	.	.
.	24A	.	.
.	24c	.	.
.	24B	.	.
.	24A	.	.
.	24B	.	.
32g#	.	.	.
.	24c	.	.
32a	.	.	.
=59	=59	=59	=59
8g#	4B	4E	4E
8ee	.	.	.
4.ee	24r	4g#	4B
.	24ddd	.	.
.	24bb	.	.
.	24aa	.	.
.	24gg#	.	.
.	24ff#	.	.
.	24ee	4b	4d
.	24dd	.	.
.	24cc#	.	.
16ff#	24b	.	.
.	24a	.	.
16ee	.	.	.
.	24g#	.	.
=60	=60	=60	=60
8.ee	4a	4a	4c#
16cc#	.	.	.
4a	2r	24r	4e
.	.	24c#	.
.	.	24B	.
.	.	24A	.
.	.	24G#	.
.	.	24F#	.
4r	.	24E	4a
.	.	24D	.
.	.	24C#	.
.	.	24E	.
.	.	24A	.
.	.	24c#	.
=61	=61	=61	=61
4r	8g#	8.d	4E
.	8ee	.	.
.	.	16B	.
24r	4.ee	4G#	4B
24ddd	.	.	.
24bb	.	.	.
24aa	.	.	.
24gg#	.	.	.
24ff#	.	.	.
24ee	.	4r	4d
24dd	.	.	.
24cc#	.	.	.
24b	16ff#	.	.
24a	.	.	.
.	16ee	.	.
24g#	.	.	.
=62	=62	=62	=62
[2aa	8ee	16e	16c
.	.	16c	16A
.	16a	16e	16c
.	16cc	16c	16A
.	16a	16e	16c
.	16cc	16c	16A
.	16a	16e	16c
.	16cc	16c	16A
8aa]	16a	16e	16c
.	16cc	16c	16A
8a	16a	16e	16c
.	16cc	16c	16A
=63	=63	=63	=63
[2ccc	16a	16f	16F
.	16cc	16c	16A
.	16a	16f	16F
.	16cc	16c	16A
.	16a	16f	16F
.	16cc	16c	16A
.	16a	16f	16F
.	16cc	16c	16A
8ccc]	16a	16f	16F
.	16cc	16c	16A
8ff	16a	16f	16F
.	16cc	16c	16A
=64	=64	=64	=64
2bb-	16b-	16f	16D
.	16b-	16f	16D
.	16b-	16f	16D
.	16b-	16f	16D
.	16b-	16f	16D
.	16b-	16f	16D
.	16b-	16f	16D
.	16b-	16f	16D
4aa	16cc	16f#	16D#
.	16cc	16f#	16D#
.	16cc	16f#	16D#
.	16cc	16f#	16D#
=65	=65	=65	=65
4.ee	4.cc#	2a	16E
.	.	.	16A
.	.	.	16c#
.	.	.	16A
.	.	.	4.e
8dd#	8cc	.	.
8dd	8b	8g#	.
8g#	8b	8d	8E
=66	=66	=66	=66
24a	4a	4c#	4A
24cc#	.	.	.
24dd	.	.	.
24ee	.	.	.
24ff#	.	.	.
24gg#	.	.	.
24aa	2r	2r	2r
24gg#	.	.	.
24bb	.	.	.
24aa	.	.	.
24ccc#	.	.	.
24bb	.	.	.
24ddd	.	.	.
24ccc#	.	.	.
24bb	.	.	.
24aa	.	.	.
24gg#	.	.	.
24ff#	.	.	.
=67	=67	=67	=67
4.ee	4.cc#	2a	24EE
.	.	.	24AA
.	.	.	24C#
.	.	.	24E
.	.	.	24F#
.	.	.	24G#
.	.	.	24A
.	.	.	24E
.	.	.	24A
8dd#	8cc	.	24c
.	.	.	24B
.	.	.	24A
8dd	8b	8g#	8e
8g#	8b	8d	8E
=68	=68	=68	=68
24a	4a	4c#	4AA
24cc#	.	.	.
24dd	.	.	.
24ee	.	.	.
24ff#	.	.	.
24gg#	.	.	.
24aa	2r	2r	2r
24gg#	.	.	.
24bb	.	.	.
24aa	.	.	.
24ccc#	.	.	.
24bb	.	.	.
24ddd	.	.	.
24ccc#	.	.	.
24bb	.	.	.
24aa	.	.	.
24gg#	.	.	.
24ff#	.	.	.
=69	=69	=69	=69
4.ee	4.cc#	2a	24EE
.	.	.	24E
.	.	.	24F
.	.	.	24F#
.	.	.	24G
.	.	.	24G#
.	.	.	24A
.	.	.	24E
.	.	.	24A
8dd#	8cc	.	24c
.	.	.	24B
.	.	.	24A
8dd	8b	8g#	8e
8g#	8b	8d	8E
=70	=70	=70	=70
24a	4a	8r	4F#
24dd#	.	.	.
24ff#	.	.	.
24aa	.	8d#	.
24ff#	.	.	.
24dd#	.	.	.
24ee	4.b 4.e	8r	4.G#
24ff#	.	.	.
24gg#	.	.	.
24aa	.	8d	.
24bb	.	.	.
24ccc#	.	.	.
8ddd	.	4r	.
8r	8r	.	8r
=71	=71	=71	=71
4r	4e	2.e 2.c#	[2.AA
24r	4a	.	.
24eee	.	.	.
24ddd	.	.	.
24ccc#	.	.	.
24bb	.	.	.
24aa	.	.	.
24gg#	4cc#	.	.
24aa	.	.	.
24ee	.	.	.
24gg#	.	.	.
24aa	.	.	.
24ee	.	.	.
=72	=72	=72	=72
4r	4f#	2.f# 2.d	2.AA_
24r	4b	.	.
24fff#	.	.	.
24eee	.	.	.
24ddd	.	.	.
24ccc#	.	.	.
24bb	.	.	.
24aa#	4dd	.	.
24bb	.	.	.
24ff#	.	.	.
24aa#	.	.	.
24bb	.	.	.
24ff#	.	.	.
=73	=73	=73	=73
4r	8g#	2.g# 2.B	2.AA_
.	8ee	.	.
24r	4.ee	.	.
24ddd	.	.	.
24ccc#	.	.	.
24bb	.	.	.
24aa	.	.	.
24gg#	.	.	.
24ff#	.	.	.
24ee	.	.	.
24dd	.	.	.
24cc#	16ff#	.	.
24dd	.	.	.
.	16dd	.	.
24b	.	.	.
=74	=74	=74	=74
24a	8cc#	4c# 4a	4AA]
24ee	.	.	.
24dd	.	.	.
24cc#	8ee	.	.
24b	.	.	.
24a	.	.	.
24g#	4.ee	4r	4r
24f#	.	.	.
24e	.	.	.
24d	.	.	.
24c#	.	.	.
24B	.	.	.
24A	.	4B	4E
24G#	.	.	.
24A	.	.	.
24B	8g#	.	.
24c#	.	.	.
24d	.	.	.
=75	=75	=75	=75
8c#	24a	24e	4AA
.	24ee	24cc#	.
.	24dd	24b	.
8ee	24cc#	24a	.
.	24b	24g#	.
.	24a	24f#	.
4.ee	24g#	24e	4r
.	24f#	24d	.
.	24e	24c#	.
.	24d	24B	.
.	24c#	24A	.
.	24e	24c#	.
.	24d	24B	4E
.	24B	24G#	.
.	24c#	24A	.
8g#	24d	24B	.
.	24e	24c#	.
.	24d	24B	.
=76	=76	=76	=76
8a	8c#	8A	24r
.	.	.	24A
.	.	.	24G#
8r	8r	8r	24F#
.	.	.	24E
.	.	.	24D
8a	8c#	8e	24C#
.	.	.	24F#
.	.	.	24E
8r	8r	8r	24D
.	.	.	24C#
.	.	.	24BB
8a	8c#	8e	24AA
.	.	.	24EE
.	.	.	24GG#
8r	8r	8r	24AA
.	.	.	24EE
.	.	.	24GG#
=77	=77	=77	=77
8a	8c#	8e	8AA
8r	8r	8r	8r
8cc# 8aa 8e	8cc# 8e 8A	8e 8A	8A 8AA 8E
4.r	4.r	4.r	4.r
==	==	==	==
*-	*-	*-	*-
!!!RWG1: This file contains only pitch and duration data.
!!!RWG2: Transposing instruments are not transposed.
!!!RWG3: Spines may have incompatible meters.
!!!RWG4: Durations of rests and tied notes may be interpreted.
!!!RWG: Key is interpreted using the Humdrum key tool.
!!!GTL: 6 Quartetti ("Apponyi")
!!!AFT: stage1
!!!END: 1997/04/15
!!format changes:
!!content changes:
!!public access: complete
!!!KEY: 85844839
!!!EMD: Converted from MuseData to Humdrum Dec 16, 2000, by Andreas Kornstaedt using muse2kern.
